X: 30195
T: Old Gort Road, The
R: slide
M: 12/8
K: Gmajor
G2 B DGB d2 B G3|1 GAB d2 B G3- G2:|2 GG/A/B dcB A2 G G2||
e2 d cde d2 B D2 F|1 GG/A/B dcB A2 G G2:|2 GAB d2 B G3- G2||

